X: 7
T: Drag Her Round The Road
R: reel
M: 4/4
L: 1/8
K: Emin
AB||cF{A}FE (EF)AF|{G}FECE EFAB|cF{A}FE F2EF|ABcA B{c}BAB|cF{A}FE (EF)AF|{G}FECE EFAB|cF{A}FE (EF)(EF)|ABcA BAcB||A3A ABce|dcBc defe|~c3B Acef|ecAc BFF2|AEcE Acec|dcBc defz|afec dfaf|ecAc B2||


Tune 1148	Setting 14417

